coreui/free/cil-arrow-thick-to-right.svg

<svg xmlns="http://www.w3.org/2000/svg" viewBox="0 0 512 512">
  <path fill="var(--ci-primary-color, currentColor)" d="M176,56V176H16V336H176V456h38.623l200-199.8L214.635,56Zm32,361.384V304H48V208H208V94.639L369.373,256.174Z" class="ci-primary"/>
  <rect width="32" height="400" x="463.998" y="56" fill="var(--ci-primary-color, currentColor)" class="ci-primary"/>
</svg>

<svg viewBox="0 0 512 512" xmlns="http://www.w3.org/2000/svg"><g><path d="M176 56v120H16v160h160v120h38.62l200-199.8L214.632 56Zm32 361.384v-113.39H48v-96h160V94.63l161.373 161.53Z"/><path d="M463.99 56h32v400h-32Z"/></g></svg>
